assets/Video camera/Flat/video_camera_flat.svg

<svg width="32" height="32" viewBox="0 0 32 32" fill="none" xmlns="http://www.w3.org/2000/svg">
<path d="M2 9C2 8.44772 2.44772 8 3 8H3.13962C3.61479 8 4 8.38521 4 8.86038C4 8.95286 4.01491 9.04473 4.04415 9.13246L4.89459 11.6838C4.96301 11.889 4.96301 12.111 4.89459 12.3162L4.04415 14.8675C4.01491 14.9553 4 15.0471 4 15.1396C4 15.6148 3.61479 16 3.13962 16H3C2.44772 16 2 15.5523 2 15V9ZM29 14H28L27 18L28 22H29C29.5523 22 30 21.5523 30 21V15C30 14.4477 29.5523 14 29 14ZM16.5 25L7 26V28C7 29.1046 7.89543 30 9 30H24C25.1046 30 26 29.1046 26 28V26L16.5 25ZM18 10H6L7 14H22C22 11.7909 20.2091 10 18 10Z" fill="#321B41"/>
<path d="M4 9H5.5C6.32843 9 7 9.67157 7 10.5V13.5C7 14.3284 6.32843 15 5.5 15H4V9ZM7 14H26V26H7V14ZM13.5 27C13.2239 27 13 27.2239 13 27.5C13 27.7761 13.2239 28 13.5 28H14.5C14.7761 28 15 27.7761 15 27.5C15 27.2239 14.7761 27 14.5 27H13.5Z" fill="#D3D3D3"/>
<path d="M19 27.5C19 27.7761 18.7761 28 18.5 28C18.2239 28 18 27.7761 18 27.5C18 27.2239 18.2239 27 18.5 27C18.7761 27 19 27.2239 19 27.5Z" fill="#CA0B4A"/>
<path d="M26 14H28V22H26V14ZM9 16C9 15.4477 9.44772 15 10 15H20C20.5523 15 21 15.4477 21 16V18H22C22.5523 18 23 18.4477 23 19V20C23 20.5523 22.5523 21 22 21H21V23C21 23.5523 20.5523 24 20 24H10C9.44772 24 9 23.5523 9 23V16Z" fill="#E6E6E6"/>
<path d="M11 18C11 17.4477 11.4477 17 12 17H18C18.5523 17 19 17.4477 19 18V21C19 21.5523 18.5523 22 18 22H12C11.4477 22 11 21.5523 11 21V18Z" fill="#321B41"/>
</svg>

<svg xmlns="http://www.w3.org/2000/svg" width="32" height="32" fill="none"><path fill="#321B41" d="M2 9a1 1 0 0 1 1-1h.14a.86.86 0 0 1 .86.86.86.86 0 0 0 .044.272l.85 2.552a1 1 0 0 1 0 .632l-.85 2.551A.86.86 0 0 0 4 15.14a.86.86 0 0 1-.86.86H3a1 1 0 0 1-1-1V9Zm27 5h-1l-1 4 1 4h1a1 1 0 0 0 1-1v-6a1 1 0 0 0-1-1ZM16.5 25 7 26v2a2 2 0 0 0 2 2h15a2 2 0 0 0 2-2v-2l-9.5-1ZM18 10H6l1 4h15a4 4 0 0 0-4-4Z"/><path fill="#D3D3D3" d="M4 9h1.5A1.5 1.5 0 0 1 7 10.5v3A1.5 1.5 0 0 1 5.5 15H4V9Zm3 5h19v12H7V14Zm6.5 13a.5.5 0 0 0 0 1h1a.5.5 0 0 0 0-1h-1Z"/><path fill="#CA0B4A" d="M19 27.5a.5.5 0 1 1-1 0 .5.5 0 0 1 1 0Z"/><path fill="#E6E6E6" d="M26 14h2v8h-2v-8ZM9 16a1 1 0 0 1 1-1h10a1 1 0 0 1 1 1v2h1a1 1 0 0 1 1 1v1a1 1 0 0 1-1 1h-1v2a1 1 0 0 1-1 1H10a1 1 0 0 1-1-1v-7Z"/><path fill="#321B41" d="M11 18a1 1 0 0 1 1-1h6a1 1 0 0 1 1 1v3a1 1 0 0 1-1 1h-6a1 1 0 0 1-1-1v-3Z"/></svg>
